X:127
T:Dan Sullivan's
R:polka
H:Also played in Emix, #128
Z:id:hn-polka-127
M:2/4
L:1/8
K:Amix
A>B cd | ed ea | ge de/d/ | cA GE | A>B cd | ed ea | ge de/d/ | cA A2 :|
|: ab/a/ ge | dB gb | aA AB/c/ | dB GE | A>B cd | ed ea | ge de/d/ | cA A2 :|

